PortableApps/LibreOfficePortable/App/libreoffice/help/media/icon-themes/cmd/lc_validation.svg

<svg viewBox="0 0 24 24" xmlns="http://www.w3.org/2000/svg"><path d="m3 3v18h18v-18z" fill="#fff"/><path d="m3 2c-.554 0-1 .446-1 1v18c0 .554.446 1 1 1h18c.554 0 1-.446 1-1v-18c0-.554-.446-1-1-1zm0 1h18v18h-18zm4.5 2a2.5 2.5 0 0 0 -2.5 2.5 2.5 2.5 0 0 0 2.5 2.5 2.5 2.5 0 0 0 2.5-2.5 2.5 2.5 0 0 0 -2.5-2.5zm0 1a1.5 1.5 0 0 1 1.5 1.5 1.5 1.5 0 0 1 -1.5 1.5 1.5 1.5 0 0 1 -1.5-1.5 1.5 1.5 0 0 1 1.5-1.5zm-2.5 8v5h5v-5zm1 1h3v3h-3z" fill="#808080"/><path d="m15 5v2h-2v2h2v2h2v-2h2v-2h-2v-2z" fill="#76a797"/><path d="m13 15h6v2h-6z" fill="#e68497"/></svg>

<svg viewBox="0 0 24 24" xmlns="http://www.w3.org/2000/svg">
  <path
     style="fill:#ffffff"
     d="M 3 3 L 3 21 L 21 21 L 21 3 L 3 3 z "
     />
  <path
     style="fill:#808080"
     d="M 3 2 C 2.446 2 2 2.446 2 3 L 2 21 C 2 21.554 2.446 22 3 22 L 21 22 C 21.554 22 22 21.554 22 21 L 22 3 C 22 2.446 21.554 2 21 2 L 3 2 z M 3 3 L 21 3 L 21 21 L 3 21 L 3 3 z M 7.5 5 A 2.5 2.5 0 0 0 5 7.5 A 2.5 2.5 0 0 0 7.5 10 A 2.5 2.5 0 0 0 10 7.5 A 2.5 2.5 0 0 0 7.5 5 z M 7.5 6 A 1.5 1.5 0 0 1 9 7.5 A 1.5 1.5 0 0 1 7.5 9 A 1.5 1.5 0 0 1 6 7.5 A 1.5 1.5 0 0 1 7.5 6 z M 5 14 L 5 19 L 10 19 L 10 14 L 5 14 z M 6 15 L 9 15 L 9 18 L 6 18 L 6 15 z "
     />
  <path
     style="fill:#76a797"
     d="m 15,5 v 2 h -2 v 2 h 2 v 2 h 2 V 9 h 2 V 7 H 17 V 5 Z"
     />
  <path
     style="fill:#e68497"
     d="m 13,15 h 6 v 2 h -6 z"
     />
</svg>
